X: 201899
T: Turnpike Gate [1st setting]
S: "The Roche Collection of Traditional Irish Music" [I/74/194]
L: 1/8
M: 4/4
R: reel
K: Ador
GEDE GABd | edef g2 g2 | GEDE GABd | (3efg dB A2 A2 |
GEDE GABd | edef g2 ga | bgag edBd | (3efg dB A2 A2 ||
Bded BG G2 | Bdef g2 g2 | Bded BG G2 | (3efg dB A2 A2 |
Bded BG G2 | Bdef g2 ga | bgag edBd | (3efg dB A2 A2 |]
